X:1
T:Fuyons tous d'amour le jeu
T:Orlando di Lasso
T:Fuyons tous d'amour le jeu
C:Orlando di Lasso
%%score [ 1 2 3 4 ]
L:1/8
Q:1/4=120
M:4/4
K:F
V:1 treble nm="Soprano" snm="S"
V:2 treble nm="Alto" snm="A"
V:3 treble-8 nm="Tenor" snm="T"
V:4 bass nm="Bass" snm="B"
V:1
 z4 ABcB | AG F2 z2 de | fedc =BBcc | A4 B3 B | dddd c2 c2 | d3 d dddd | c2 A2 AG A2- | %7
w: Fu- yons tous d'a-|mour le jeu, Fu- yons|tous d'a- mour le jeu Com- me le|feu. Ai- me|qui vou- dra les fem- mes.|Ser- ve qui vou- dra les|da- mes; Quant à moi|
 AAGF G2 GG | Ac B2 A4 | z4 z2 g2- | gfed cBAA | B2 G2 A4 | z4 z2 g2- | gfed cBAA | B2 G2 A2 AB | %15
w: _ je n'en ai eu- re, Ni|les en- du- re.|Ja-|* mais on n'y gag- ne rien, je|le vois bien.|Ja-|* mais on n'y gag- ne rien, je|le vois bien. Fu- yons|
 c2 z2 ABcB | AG F2 z2 de | fedc =BBcc | A4 z4 | d4 f2 f2 | f8 |] z8 | z8 | z8 | z8 | z8 | z8 | %27
w: tous Fu- yons tous d'a-|mour le jeu, Fu- yons|tous d'a- mour le jeu, Com- me le|feu.|Com- me le|feu.|||||||
 z8 | z8 | z8 | z8 |] %31
w: ||||
V:2
 z8 | FGAG FE D2 | A4 G2 G2 | C4 D3 D | BBBB G2 A2 | B3 B BBBB | G2 F2 FE F2 | z FDC D2 EE | %8
w: |Fu- yons tous d'a- mour le jeu|Com- me le|feu. Ai- me|qui vou- dra les fem- mes.|Ser- ve qui vou- dra les|da- mes; Quant à moi|je n'en ai eu- re, Ni|
 FE G2 C2 F2- | FEDC B,A, G,2 | G4 A2 F2- | F E/D/ E2 F2 F2- | FEDC B,A, G,2 | G4 A2 F2- | %14
w: les en- du- re. Ja-|* mais on n'y gag- ne rien,|je le vois|_ _ _ _ bien. Ja-|* mais on n'y gag- ne rien,|je le vois|
 F E/D/ E2 F2 FG | A2 E2 FG C2 | FGAG FE D2 | A4 G2 G2 | F4 z4 | F4 F2 G2 | A8 |] z8 | z8 | z8 | %24
w: _ _ _ _ bien. Fu- yons|tous d'a- mour le jeu,|Fu- yons tous d'a- mour le jeu,|Com- me le|feu.|Com- me le|feu.||||
 z8 | z8 | z8 | z8 | z8 | z8 | z8 |] %31
w: |||||||
V:3
 ABcB AG F2 | z2 fg agfe | d2 f2 d2 e2 | f2 f3 fff | ff g2 e2 f2- | ffff ff g2 | e2 cd c2 z c | %7
w: Fu- yons tous d'a- mour le jeu,|Fu- yons tous d'a- mour le|jeu Com- me le|feu. Ai- me qui vou-|dra les fem- mes. Ser-|* ve qui vou- dra les da-|mes; Quant à moi je|
 d2 =B c2 B c2- | ccde f2 c2 | z4 g3 f | edcB A2 c2 | d2 c2 c4 | z4 g3 f | edcB A2 c2 | d2 c2 c4 | %15
w: n'en ai eu- * re,|_ Ni les en- du- re.|Ja- mais|on n'y gag- ne rien, je|le vois bien.|Ja- mais|on n'y gag- ne rien, je|le vois bien.|
 ABcB AG F2 | z2 fg agfe | d2 f2 d2 e2 | d4 z4 | d4 d2 d2 | c8 |] z8 | z8 | z8 | z8 | z8 | z8 | %27
w: Fu- yons tous d'a- mour le jeu,|Fu- yons tous d'a- mour le|jeu. Com- me le|feu.|Com- me le|feu.|||||||
 z8 | z8 | z8 | z8 |] %31
w: ||||
V:4
 z2 A,B, CB,A,G, | F,4 D,4- | D,4 G,2 C,2 | F,4 B,3 B, | B,B,G,G, C2 F,2 | B,3 B, B,B,G,G, | %6
w: Fu- yons tous d'a- mour le|jeu Com-|* me le|feu. Ai- me|qui vou- dra les fem- mes.|Ser- ve qui vou- dra les|
 C2 F,2 F,C, F,2 | z D,G,A, G,2 C,C, | F,A, G,2 F,4 | B,3 A, G,F,E,D, | C,4 z2 F,2 | B,,2 C,2 F,4 | %12
w: da- mes; Quant à moi|je n'en ai eu- re, Ni|les en- du- re.|Ja- mais on n'y gag- ne|rien, je|le vois bien.|
 B,3 A, G,F,E,D, | C,4 z2 F,2 | B,,2 C,2 F,4 | z2 A,B, CB,A,G, | F,4 D,4- | D,4 G,2 C,2 | D,4 z4 | %19
w: Ja- mais on n'y gag- ne|rien, je|le vois bien.|Fu- yons tous d'a- mour le|jeu, Com-|* me le|feu.|
 B,4 B,2 B,2 | F,8 |] z8 | z8 | z8 | z8 | z8 | z8 | z8 | z8 | z8 | z8 |] %31
w: Com- me le|feu.|||||||||||

